public/images/tickets/pink-paw-left.svg

<svg width="67" height="64" viewBox="0 0 67 64" fill="none" xmlns="http://www.w3.org/2000/svg">
<path d="M52.1231 48.4917L49.396 48.4471C48.2017 48.4276 47.0643 47.9335 46.2349 47.0739C45.7341 46.5549 45.1158 46.164 44.4322 45.9343L44.122 45.83C42.7187 45.3584 41.1886 45.4378 39.8416 46.0521L39.3114 46.2939C38.5616 46.6359 37.875 47.1023 37.2806 47.6732L34.1708 50.6606C33.9783 50.8454 33.7682 51.0109 33.5434 51.1547C32.8039 51.6277 31.9314 51.8492 31.0559 51.7863L28.9439 51.6345C27.3924 51.523 25.8355 51.7591 24.3868 52.3256L23.3049 52.7486C21.8098 53.3332 20.4523 54.2217 19.3184 55.3581C17.95 56.7295 16.9469 58.4219 16.4007 60.2807L16.3143 60.5747C15.7691 62.4299 14.8109 64.1375 13.5114 65.5693L12.4953 66.6889C11.5216 67.7618 10.8438 69.0696 10.5287 70.4838C10.2553 71.7107 10.2625 72.9835 10.5497 74.2073L12.2445 81.4275C12.6993 83.3652 13.3597 85.2488 14.2146 87.0461L16.0257 90.8541C16.6363 92.1377 17.5419 93.2787 18.6487 94.1706C21.1388 96.1772 24.5143 96.7999 27.5445 95.7776C28.8499 95.3372 30.042 94.6139 31.0356 93.6595L33.824 90.9809L35.6195 89.5318C37.1541 88.2933 38.9077 87.3542 40.7892 86.7635C43.0965 86.0391 45.5397 85.8562 47.9292 86.229L49.7504 86.5132C50.7362 86.667 51.7343 86.7288 52.7316 86.6977L53.4843 86.6743C56.4393 86.5822 59.2867 85.5441 61.6075 83.7126L61.6586 83.6722C62.3143 83.1547 62.9191 82.5759 63.4648 81.9434C65.5066 79.577 66.6369 76.5596 66.6524 73.4341L66.6641 71.0541C66.6722 69.4176 66.475 67.7866 66.0772 66.1992L64.4417 59.6726L63.4843 56.8094C62.6275 54.247 60.9341 52.047 58.6762 50.5632C57.8121 49.9953 56.8784 49.541 55.8983 49.2116L55.4675 49.0668C54.3889 48.7043 53.2608 48.5103 52.1231 48.4917Z" fill="#FFACD4"/>
<path d="M12.5413 58.5756L12.554 60.1976C12.5685 62.0565 11.627 63.7925 10.0609 64.7942C9.44734 65.1866 8.76079 65.451 8.04249 65.5715L6.10192 65.897C5.23342 66.0427 4.34262 65.8374 3.62554 65.3262C2.73086 64.6884 2.20966 63.6493 2.23343 62.5509L2.26146 61.2557C2.27783 60.4994 2.14528 59.7472 1.87134 59.042L1.21317 57.3477L0.601255 54.9058C0.413779 54.1577 0.300936 53.3928 0.264399 52.6224C0.1553 50.3221 0.729297 48.0411 1.91411 46.0664L2.11182 45.7369C2.79529 44.8947 3.96535 44.6279 4.94637 45.0904L6.90698 46.0149C7.77927 46.4262 8.51771 47.0754 9.03733 47.8878L9.98719 49.373C10.6967 50.4823 11.2058 51.7078 11.4911 52.9934L12.3434 56.8336C12.4703 57.4057 12.5367 57.9896 12.5413 58.5756Z" fill="#FFACD4"/>
<path d="M0.177992 38.4134L0.738968 41.386C0.897352 42.2252 1.76115 42.7307 2.57041 42.4577C3.03646 42.3005 3.38649 41.9112 3.49347 41.4311L3.90028 39.6055C3.99177 39.1949 4.02804 38.7739 4.00811 38.3537L3.81589 34.3007L3.74108 31.4309C3.73692 31.2714 3.52935 31.2127 3.44223 31.3464L0.762368 35.4608C0.194334 36.3329 -0.0150186 37.3907 0.177992 38.4134Z" fill="#FFACD4"/>
<path d="M15.6334 29.7805L13.6943 28.6291C12.7238 28.0528 11.488 28.1953 10.6739 28.9772C10.1814 29.4503 9.90297 30.1037 9.90276 30.7866L9.90069 37.3065L10.4787 42.8948C10.6275 44.3334 11.0309 45.7342 11.6701 47.0317L12.5261 48.7695C12.8563 49.4396 13.3475 50.0174 13.9559 50.4511C14.9899 51.1882 16.2866 51.4559 17.528 51.1885L18.04 51.0782C19.582 50.7461 20.9176 49.7901 21.7292 48.4375L21.762 48.3828C22.2288 47.6048 22.5082 46.729 22.5783 45.8244L22.6959 44.3043C22.844 42.3909 22.5429 40.4693 21.8165 38.693L21.3622 37.5819C20.7648 36.1208 19.9711 34.7479 19.003 33.5011L17.1621 31.13C16.7415 30.5883 16.223 30.1306 15.6334 29.7805Z" fill="#FFACD4"/>
<path d="M8.3482 22.1253L10.2808 24.2628C10.8643 24.9081 11.8285 25.0375 12.5614 24.5687C13.2593 24.1224 13.5572 23.2537 13.2802 22.473L11.751 18.1631C11.3624 17.0679 11.2323 15.8978 11.3709 14.744L11.983 9.64765C12.0209 9.33243 11.6017 9.18886 11.4383 9.4611L7.95202 15.2716C7.61703 15.8299 7.37407 16.4384 7.23246 17.0739L7.13319 17.5194C6.76741 19.1609 7.22033 20.8778 8.3482 22.1253Z" fill="#FFACD4"/>
<path d="M33.9557 30.6835L33.2017 28.8396C32.7063 27.6279 32.1023 26.4636 31.397 25.3609C30.0271 23.2192 28.2786 21.3249 26.2565 19.784C25.0928 18.8972 23.3935 19.3742 22.8766 20.743L22.4398 21.8999C21.3764 24.7161 20.984 27.7414 21.2938 30.7358C21.4256 32.0101 21.6835 33.2682 22.0636 34.4916L23.4589 38.9812L24.3132 41.5362C24.7402 42.8133 25.6464 43.8748 26.8408 44.4968C28.2884 45.2507 30.0061 45.2806 31.479 44.5775L31.53 44.5532C32.7274 43.9816 33.6674 42.9823 34.1647 41.7522L34.5815 40.7215C35.0364 39.5965 35.235 38.3843 35.1628 37.1731L35.0672 35.5664C34.9673 33.8888 34.5918 32.2391 33.9557 30.6835Z" fill="#FFACD4"/>
<path d="M39.9533 18.9462L38.818 18.7C38.3855 18.6063 37.9335 18.6875 37.5608 18.9259C37.2976 19.0942 37.0867 19.3328 36.952 19.6147L35.9634 21.6838C35.1927 23.2966 34.8822 25.0909 35.0661 26.8689L35.2657 28.7989C35.3909 30.009 35.6487 31.2017 36.0345 32.3555L37.3029 36.1489C37.5892 37.0053 37.9801 37.8231 38.4666 38.5838L39.8752 40.7861C40.3131 41.4707 40.9718 41.9852 41.7422 42.2441C43.152 42.7179 44.7078 42.2665 45.645 41.1116L45.9031 40.7937C46.2407 40.3776 46.4947 39.9002 46.651 39.3876L47.6075 36.2511C47.8567 35.4338 48.0287 34.5949 48.1213 33.7455L48.1778 33.2272C48.3155 31.9626 48.2278 30.6837 47.9186 29.4498C47.6362 28.323 47.1731 27.2495 46.5472 26.2709L45.6138 24.8114L44.1269 22.4867C43.8663 22.0792 43.5722 21.694 43.2477 21.3351L42.3328 20.3232C41.7031 19.6267 40.8709 19.1451 39.9533 18.9462Z" fill="#FFACD4"/>
<path d="M59.272 30.7055L57.8468 29.7201C55.7533 28.2726 52.8723 28.8949 51.5628 31.0774C50.9611 32.0801 50.7857 33.2926 51.07 34.427L53.0369 40.7563L54.8095 45.0914C55.2498 46.1682 56.0928 47.0308 57.1592 47.4957L57.9712 47.8498C58.8292 48.2238 59.8171 48.1456 60.6055 47.6414C61.3598 47.1589 61.8387 46.3456 61.8946 45.452L62.2149 40.3354C62.2717 39.4277 62.2324 38.5166 62.0977 37.6171L61.6291 34.4883C61.5123 33.7082 61.2322 32.9615 60.8072 32.2969C60.4062 31.6698 59.8843 31.1289 59.272 30.7055Z" fill="#FFACD4"/>
<path d="M48.6043 15.3407L45.5037 14.6684C45.264 14.6164 45.1174 14.923 45.3085 15.0769L48.0101 17.2541C48.5583 17.6958 49.0312 18.2235 49.4105 18.8166C49.8594 19.5184 50.1695 20.2999 50.324 21.1186L50.5683 22.4127C50.6361 22.7719 50.7721 23.1147 50.969 23.4226L51.1949 23.7757C51.6411 24.4734 52.444 24.8582 53.2673 24.7692C54.0416 24.6856 54.7127 24.1953 55.0278 23.483C55.2477 22.9859 55.274 22.4246 55.1016 21.9091L54.7936 20.9879C54.6714 20.6223 54.5045 20.2731 54.2968 19.9484L53.5491 18.7794C53.0088 17.9345 52.3113 17.2011 51.4947 16.619C50.6279 16.0011 49.6445 15.5662 48.6043 15.3407Z" fill="#FFACD4"/>
<path d="M33.4088 4.43453L29.2489 2.81988C29.0491 2.74232 28.8665 2.96535 28.982 3.14591L29.5557 4.04293L31.1765 6.0459C32.2789 7.40834 32.9618 9.06171 33.1421 10.805C33.2252 11.6083 33.4155 12.3968 33.7079 13.1496L34.3404 14.7778L34.8401 16.0642C35.1784 16.935 36.059 17.4705 36.9878 17.3701C37.631 17.3006 38.2045 16.9338 38.5374 16.379L38.8561 15.8478C39.18 15.3079 39.3434 14.6869 39.327 14.0575L39.2987 12.9717C39.2756 12.0845 39.085 11.2097 38.737 10.3933L38.1551 9.02821C37.9704 8.59482 37.7499 8.17754 37.4961 7.78066C36.5234 6.25973 35.0918 5.08781 33.4088 4.43453Z" fill="#FFACD4"/>
<path d="M20.83 3.41595L19.2906 0.179239C19.1555 -0.104849 18.7325 -0.0332408 18.6984 0.27949C18.509 2.01813 18.466 3.76962 18.57 5.51547L18.7699 8.8721L19.4393 13.3422C19.5537 14.1059 19.9734 14.7904 20.6023 15.2387L20.776 15.3625C21.6172 15.9622 22.7385 15.9904 23.6089 15.4337C24.2545 15.0208 24.6783 14.3375 24.7613 13.5756L24.8913 12.3827C24.9848 11.5243 24.8561 10.6563 24.5175 9.86207L23.9825 8.60681C23.7597 8.08421 23.4939 7.58102 23.1878 7.10243L20.83 3.41595Z" fill="#FFACD4"/>
</svg>

<svg xmlns="http://www.w3.org/2000/svg" width="67" height="64" fill="none"><path fill="#FFACD4" d="m52.123 48.492-2.727-.045a4.5 4.5 0 0 1-3.161-1.373c-.5-.52-1.12-.91-1.803-1.14l-.31-.104a5.84 5.84 0 0 0-4.28.222l-.53.242a7.3 7.3 0 0 0-2.031 1.38l-3.11 2.987a4.08 4.08 0 0 1-3.115 1.125l-2.112-.151a10.46 10.46 0 0 0-4.557.69l-1.082.424A11.6 11.6 0 0 0 16.4 60.28l-.087.294a12.8 12.8 0 0 1-2.803 4.994l-1.016 1.12a8.35 8.35 0 0 0-1.945 7.518l1.694 7.22a28 28 0 0 0 1.97 5.62l1.812 3.807a9.55 9.55 0 0 0 2.623 3.317c2.49 2.006 5.865 2.629 8.895 1.607a9.36 9.36 0 0 0 3.492-2.119l2.788-2.678 1.796-1.45a15.74 15.74 0 0 1 12.31-3.302l1.82.284c.986.154 1.984.216 2.982.185l.752-.024a13.8 13.8 0 0 0 8.124-2.961l.05-.04a13.12 13.12 0 0 0 4.994-10.239l.012-2.38a19.6 19.6 0 0 0-.587-4.855l-1.635-6.526-.958-2.864a12.05 12.05 0 0 0-7.586-7.597l-.43-.145a11 11 0 0 0-3.345-.575M12.541 58.576l.013 1.622a5.406 5.406 0 0 1-4.512 5.374l-1.94.325a3.32 3.32 0 0 1-3.869-3.346l.028-1.295a5.8 5.8 0 0 0-.39-2.214l-.658-1.694-.612-2.442a11.67 11.67 0 0 1 1.313-8.84l.198-.33a2.356 2.356 0 0 1 2.834-.646l1.961.925a5.1 5.1 0 0 1 2.13 1.873l.95 1.485a11.2 11.2 0 0 1 1.504 3.62l.852 3.84c.127.573.194 1.157.198 1.743M.178 38.413l.561 2.973a1.406 1.406 0 0 0 2.754.045l.407-1.825c.092-.411.128-.832.108-1.252L3.816 34.3l-.075-2.87a.163.163 0 0 0-.299-.085l-2.68 4.115a4.04 4.04 0 0 0-.584 2.952M15.633 29.78l-1.939-1.15a2.51 2.51 0 0 0-3.791 2.157l-.002 6.52.578 5.588c.149 1.438.552 2.84 1.191 4.137l.856 1.738a4.52 4.52 0 0 0 5.002 2.418l.512-.11a5.7 5.7 0 0 0 3.69-2.64l.032-.055a5.85 5.85 0 0 0 .816-2.559l.118-1.52a12.3 12.3 0 0 0-.88-5.611l-.454-1.111a17.4 17.4 0 0 0-2.359-4.08l-1.84-2.372c-.422-.542-.94-1-1.53-1.35M8.348 22.125l1.933 2.138a1.78 1.78 0 0 0 3-1.79l-1.53-4.31a7.5 7.5 0 0 1-.38-3.419l.612-5.096c.038-.316-.381-.46-.545-.187l-3.486 5.81a6 6 0 0 0-.72 1.803l-.099.445a5.19 5.19 0 0 0 1.215 4.606M33.956 30.684l-.754-1.844a21.7 21.7 0 0 0-6.945-9.056c-1.164-.887-2.864-.41-3.38.959L22.44 21.9a19.37 19.37 0 0 0-.376 12.592l1.395 4.49.854 2.554a5.195 5.195 0 0 0 7.166 3.041l.051-.024a5.3 5.3 0 0 0 2.635-2.8l.416-1.032a8.2 8.2 0 0 0 .582-3.548l-.096-1.607a15.3 15.3 0 0 0-1.111-4.883M39.953 18.946l-1.135-.246a1.675 1.675 0 0 0-1.866.915l-.989 2.069a9.7 9.7 0 0 0-.897 5.185l.2 1.93c.125 1.21.383 2.403.769 3.557l1.268 3.793c.286.856.677 1.674 1.164 2.435l1.408 2.202a3.564 3.564 0 0 0 5.77.326l.258-.318c.338-.416.592-.894.748-1.406l.956-3.137c.25-.817.422-1.656.514-2.505l.057-.519a10.75 10.75 0 0 0-1.63-6.956l-.934-1.46-1.487-2.324a9 9 0 0 0-.88-1.152l-.914-1.012a4.5 4.5 0 0 0-2.38-1.377M59.272 30.706l-1.425-.986a4.406 4.406 0 0 0-6.777 4.707l1.967 6.33 1.773 4.334a4.47 4.47 0 0 0 2.35 2.405l.811.354a2.807 2.807 0 0 0 3.924-2.398l.32-5.117a13 13 0 0 0-.117-2.718l-.469-3.129a5.6 5.6 0 0 0-2.357-3.782M48.604 15.34l-3.1-.672c-.24-.052-.387.255-.195.409l2.701 2.177a6.5 6.5 0 0 1 2.314 3.865l.244 1.294c.068.359.204.702.401 1.01l.226.353a2.182 2.182 0 0 0 3.907-1.867l-.308-.921a4.7 4.7 0 0 0-.497-1.04l-.748-1.169a7.84 7.84 0 0 0-4.945-3.438M33.409 4.435l-4.16-1.615a.222.222 0 0 0-.267.326l.574.897 1.62 2.003a9.05 9.05 0 0 1 1.966 4.759c.083.803.273 1.592.566 2.345l.632 1.628.5 1.286a2.066 2.066 0 0 0 3.697.315l.32-.531c.323-.54.486-1.161.47-1.79l-.028-1.086a7 7 0 0 0-.562-2.579l-.582-1.365a8.5 8.5 0 0 0-4.746-4.593M20.83 3.416 19.29.179c-.134-.284-.557-.212-.592.1a31 31 0 0 0-.128 5.236l.2 3.357.67 4.47a2.85 2.85 0 0 0 1.162 1.897l.174.123a2.53 2.53 0 0 0 3.985-1.786l.13-1.193a5.04 5.04 0 0 0-.373-2.52l-.535-1.256a10 10 0 0 0-.795-1.505z"/></svg>
